X:26
T:Quadrille. ET.26, A
M:2/4
L:1/8
Q:1/4=120
S:Eliza Tennyson MS, Lincolnshire,1822
R:quadrille
N:Nine bars in the B part may indicate an error in bar 11
O:England;Lincolnshire;Somersby
Z:vmp.R.Greig 2012 <http://www.village-music-project.org.uk>
K:A
ef/ g/ab|c’2a2|fg/a/ df|e/f/e/d/c2|ef/g/ ab|c’2a2|fa ga/b/|a4:|!
ab/a/ fg|a2e2|{g}f2e2″^bar line added” |e2e2|”^Allegretto” e/f/e/d/c2|ab/a/ fg|a2e2|ab/c’/ b=d|e2!D.C.!c’2||

